wp-content/themes/raymark/assets/images/service/siren.svg

<svg height="78" viewBox="0 0 61 78" width="61" xmlns="http://www.w3.org/2000/svg" xmlns:xlink="http://www.w3.org/1999/xlink"><mask id="a" fill="#fff"><path d="m0 51.5537135v26.4340557h60.8729336v-26.4340557-26.4340558h-60.8729336z" fill="none"/></mask><g fill="none" fill-rule="evenodd" transform=""><g fill="#ffd302"><path d="m30.5001099 14c-.8288289 0-1.5001099-.6273309-1.5001099-1.4000615v-11.19987698c0-.77293568.671281-1.40006152 1.5001099-1.40006152.8286091 0 1.4998901.62712584 1.4998901 1.40006152v11.19987698c0 .7727306-.671281 1.4000615-1.4998901 1.4000615"/><path d="m11.6252014 17c-.3520838 0-.7033619-.1339437-.9722588-.4028382l-8.25020144-8.25012587c-.53698821-.53698329-.53698821-1.40731517 0-1.94429846.5369882-.53698329 1.40732806-.53698329 1.94431626 0l8.25020138 8.25012593c.5369883.5369832.5369883 1.4073151 0 1.9442984-.2680912.2688945-.620175.4028382-.9720574.4028382"/><path d="m50.3747986 17c-.3518824 0-.7033619-.1339437-.9720574-.4028382-.5369883-.5369833-.5369883-1.4073152 0-1.9442984l8.2502014-8.25012593c.5369882-.53698329 1.407328-.53698329 1.9443162 0 .5369883.53698329.5369883 1.40731517 0 1.94429846l-8.2502014 8.25012587c-.2682927.2688945-.620175.4028382-.9722588.4028382"/></g><path d="m8.77770996 70.2103973h44.44437664v-29.2955276c0-9.9946804-8.0999756-18.125267-18.0568441-18.125267h-8.3306885c-9.9568685 0-18.05684404 8.1305866-18.05684404 18.125267zm45.83333334 2.7896027h-47.22229004c-.76721192 0-1.38875326-.624974-1.38875326-1.3948014v-30.6903289c0-11.5324964 9.3465169-20.9148697 20.834554-20.9148697h8.3306885c11.4882406 0 20.8347575 9.3823733 20.8347575 20.9148697v30.6903289c0 .7698274-.6215413 1.3948014-1.3889567 1.3948014z" fill="#007abe"/><path d="m12.4512957 43.2103923c-.7644253 0-1.3835449-.6235654-1.3835449-1.3916577 0-9.2075269 7.4472691-16.6990769 16.6017276-16.6990769.7644253 0 1.3835449.6233615 1.3835449 1.3916577 0 .7680923-.6191196 1.3914538-1.3835449 1.3914538-7.6276345 0-13.8346379 6.2427885-13.8346379 13.9159654 0 .7680923-.6191196 1.3916577-1.3835448 1.3916577" fill="#007abe" mask="url(#a)"/><path d="m2.76688704 75.2168885h55.33915946v-2.7831116h-55.33915946zm56.72270436 2.7831115h-58.10604655c-.76442525 0-1.38354485-.6233615-1.38354485-1.3914538v-5.566427c0-.7680923.6191196-1.3916577 1.38354485-1.3916577h58.10604655c.7642226 0 1.3833422.6235654 1.3833422 1.3916577v5.566427c0 .7680923-.6191196 1.3914538-1.3833422 1.3914538z" fill="#007abe" mask="url(#a)"/></g></svg>

<?xml version="1.0" encoding="UTF-8"?>
<svg width="61px" height="78px" viewBox="0 0 61 78" version="1.1" xmlns="http://www.w3.org/2000/svg" xmlns:xlink="http://www.w3.org/1999/xlink">
    <!-- Generator: Sketch 50.2 (55047) - http://www.bohemiancoding.com/sketch -->
    <title>siren</title>
    <desc>Created with Sketch.</desc>
    <defs>
        <polygon id="path-1" points="0 51.5537135 0 77.9877692 60.8729336 77.9877692 60.8729336 51.5537135 60.8729336 25.1196577 0 25.1196577"></polygon>
    </defs>
    <g id="Mockups" stroke="none" stroke-width="1" fill="none" fill-rule="evenodd">
        <g id="Individual-Service" transform="translate(-826.000000, -1774.000000)">
            <g id="Group-10" transform="translate(798.000000, 1757.000000)">
                <g id="siren" transform="translate(28.000000, 17.000000)">
                    <g id="Group-5" transform="translate(0.000000, 69.000000)"></g>
                    <path d="M30.5001099,14 C29.671281,14 29,13.3726691 29,12.5999385 L29,1.40006152 C29,0.627125844 29.671281,0 30.5001099,0 C31.328719,0 32,0.627125844 32,1.40006152 L32,12.5999385 C32,13.3726691 31.328719,14 30.5001099,14" id="Fill-6" fill="#FFD302"></path>
                    <path d="M11.6252014,17 C11.2731176,17 10.9218395,16.8660563 10.6529426,16.5971618 L2.40274116,8.34703593 C1.86575295,7.81005264 1.86575295,6.93972076 2.40274116,6.40273747 C2.93972936,5.86575418 3.81006922,5.86575418 4.34705742,6.40273747 L12.5972588,14.6528634 C13.1342471,15.1898466 13.1342471,16.0601785 12.5972588,16.5971618 C12.3291676,16.8660563 11.9770838,17 11.6252014,17" id="Fill-7" fill="#FFD302"></path>
                    <path d="M50.3747986,17 C50.0229162,17 49.6714367,16.8660563 49.4027412,16.5971618 C48.8657529,16.0601785 48.8657529,15.1898466 49.4027412,14.6528634 L57.6529426,6.40273747 C58.1899308,5.86575418 59.0602706,5.86575418 59.5972588,6.40273747 C60.1342471,6.93972076 60.1342471,7.81005264 59.5972588,8.34703593 L51.3470574,16.5971618 C51.0787647,16.8660563 50.7268824,17 50.3747986,17" id="Fill-8" fill="#FFD302"></path>
                    <path d="M8.77770996,70.2103973 L53.2220866,70.2103973 L53.2220866,40.9148697 C53.2220866,30.9201893 45.122111,22.7896027 35.1652425,22.7896027 L26.834554,22.7896027 C16.8776855,22.7896027 8.77770996,30.9201893 8.77770996,40.9148697 L8.77770996,70.2103973 Z M54.6110433,73 L7.38875326,73 C6.62154134,73 6,72.375026 6,71.6051986 L6,40.9148697 C6,29.3823733 15.3465169,20 26.834554,20 L35.1652425,20 C46.6534831,20 56,29.3823733 56,40.9148697 L56,71.6051986 C56,72.375026 55.3784587,73 54.6110433,73 Z" id="Fill-1" fill="#007ABE"></path>
                    <mask id="mask-2" fill="white">
                        <use xlink:href="#path-1"></use>
                    </mask>
                    <g id="Clip-3"></g>
                    <path d="M12.4512957,43.2103923 C11.6868704,43.2103923 11.0677508,42.5868269 11.0677508,41.8187346 C11.0677508,32.6112077 18.5150199,25.1196577 27.6694784,25.1196577 C28.4339037,25.1196577 29.0530233,25.7430192 29.0530233,26.5113154 C29.0530233,27.2794077 28.4339037,27.9027692 27.6694784,27.9027692 C20.0418439,27.9027692 13.8348405,34.1455577 13.8348405,41.8187346 C13.8348405,42.5868269 13.2157209,43.2103923 12.4512957,43.2103923" id="Fill-2" fill="#007ABE" mask="url(#mask-2)"></path>
                    <path d="M2.76688704,75.2168885 L58.1060465,75.2168885 L58.1060465,72.4337769 L2.76688704,72.4337769 L2.76688704,75.2168885 Z M59.4895914,78 L1.38354485,78 C0.619119601,78 0,77.3766385 0,76.6085462 L0,71.0421192 C0,70.2740269 0.619119601,69.6504615 1.38354485,69.6504615 L59.4895914,69.6504615 C60.253814,69.6504615 60.8729336,70.2740269 60.8729336,71.0421192 L60.8729336,76.6085462 C60.8729336,77.3766385 60.253814,78 59.4895914,78 Z" id="Fill-4" fill="#007ABE" mask="url(#mask-2)"></path>
                </g>
            </g>
        </g>
    </g>
</svg>
